X:153
T:Reel 153
M:4/4
K:Gmaj
L:1/8
dc|Bcde dcBc|dBgB bBgB|Bcde =fefc|Ag=fd c2dc|Bcde dcBc|dBgB bBgB|cece =fedc|BGAF G2|Bd|g2ge fgaf|gfge dBGB|c2ec BcdB|AGAB c2Bc|dggf gedB|gfge dBGB|c2cf dedc|BGAF G2|
